mobile/apps/auth/assets/custom-icons/icons/csfloat.svg

<svg xmlns="http://www.w3.org/2000/svg" viewBox="0 0 400 400"><g fill-rule="evenodd"><path fill="#fcfcfc" d="M377.6 12.736c0 .184.495.559 1.1.831l1.1.496-.883-.832c-.948-.891-1.317-1.03-1.317-.495m7.609 6.71c.012.467 1.571 2.454 1.582 2.017.005-.185-.351-.794-.791-1.354-.44-.559-.796-.858-.791-.663M273.8 62.251c-.44.09-1.88.361-3.2.602-17.453 3.18-36.219 14.311-47.063 27.917a1105.995 1105.995 0 0 1-3.076 3.848C216.815 99.127 208 115.308 208 117.491c0 .204-.475 1.527-1.055 2.94s-1.192 3.109-1.359 3.769c-.168.66-.773 2.459-1.345 3.998-.573 1.539-1.041 3.117-1.041 3.506 0 .389-.161 1.019-.358 1.401-.197.382-.759 2.135-1.248 3.895-.49 1.76-1.031 3.56-1.202 4-.171.44-.702 2.15-1.18 3.8s-.935 3.212-1.017 3.471c-.109.347-3.737.506-13.671.6-14.349.137-13.926.082-16.451 2.129-2.442 1.979-3.253 3.354-4.268 7.236-1.49 5.701-1.179 8.433 1.227 10.769 1.859 1.805 2.117 1.839 15.681 2.072 10.986.189 12.096.27 11.925.866-.103.361-1.098 4.437-2.211 9.057-1.112 4.62-2.195 9.03-2.405 9.8-.758 2.777-3.46 13.755-6.253 25.4-.105.44-.467 1.834-.803 3.097-.336 1.264-.675 2.614-.753 3-.078.387-.989 4.123-2.025 8.303-1.037 4.18-2.031 8.23-2.21 9-.364 1.564-1.396 5.71-2.985 12l-1.263 5c-.11.44-.289 1.25-.396 1.8-.107.55-.344 1.36-.527 1.8-.309.743-.619 1.964-1.672 6.6-.225.99-.552 2.16-.726 2.6-.175.44-.511 1.52-.748 2.4-1.71 6.368-5.541 18.475-8.037 25.397-.673 1.868-1.224 3.447-1.224 3.509 0 .061-.743.918-1.65 1.902-2.917 3.164-2.626 3.13-27.35 3.21-13.897.044-22.056.22-22.878.491-11.971 3.955-10.727 23.275 1.878 29.179 7.842 3.672 24.661 2.972 35.8-1.491 2.988-1.197 10.856-5.183 13.112-6.643 1.492-.965 2.799-1.754 2.905-1.754.353 0 4.353-2.881 7.383-5.317 14.18-11.402 25.418-28.252 32.068-48.083 1.679-5.009 6.023-20.522 6.498-23.208.079-.445.634-2.605 1.233-4.8.599-2.196 1.335-5.072 1.636-6.392.573-2.512 1.664-6.789 2.734-10.72.347-1.275.631-2.75.631-3.276 0-.526.18-1.068.4-1.204.22-.136.4-.856.4-1.6 0-.744.161-1.452.358-1.574.197-.121.446-.897.554-1.723.108-.827.592-2.943 1.075-4.703.483-1.76.979-3.65 1.102-4.2.122-.55 1.379-5.59 2.792-11.2 1.414-5.61 2.63-10.47 2.703-10.8.519-2.337 3.132-12.881 3.49-14.082l.442-1.483 15.242-.117c21.158-.164 21.096-.13 23.428-12.818.663-3.609.917-5.631.966-7.7l.048-2-17.146-.104-17.146-.105.213-.895c.241-1.013 1.489-5.703 2.474-9.296.362-1.32 1.38-5.19 2.263-8.6 3.827-14.779 4.844-17.958 7.678-24 5.826-12.419 10.319-15.649 19.491-14.012l3.373.604c2.168.39 6.354 1.043 9 1.405 1.43.195 2.96.453 3.4.574 8.345 2.279 16.053.274 19.781-5.144 6.248-9.081 2.377-20.877-8.122-24.746-4.333-1.597-13.565-2.709-16.859-2.03M386.919 378.09c-.888 1.148-.976 1.648-.138.784.495-.51.817-1.009.716-1.11-.101-.101-.361.046-.578.326m-7.663 7.923c-1.24 1.033-.681 1.022.635-.013.559-.44.858-.794.663-.787-.195.008-.779.368-1.298.8"/><path fill="#2f333e" d="M48.7.293c-1.045.083-1.9.321-1.9.529 0 .208-.72.378-1.6.378-.88 0-1.6.18-1.6.4 0 .22-.54.4-1.2.4-.66 0-1.2.18-1.2.4 0 .22-.54.4-1.2.4-.66 0-1.2.18-1.2.4 0 .22-.355.4-.788.4-.433 0-1.429.36-2.212.8-.783.44-1.689.8-2.012.8-.323 0-.588.146-.588.325 0 .179-.63.573-1.4.875-.77.302-1.4.696-1.4.875 0 .179-.32.325-.712.325-.391 0-.964.35-1.273.779-.308.428-.696.694-.862.592-.166-.102-.757.269-1.314.826-.556.557-1.156.965-1.333.908-.177-.058-.856.39-1.51.995-.653.605-1.395 1.1-1.649 1.1s-.569.281-.701.625-.426.511-.653.371c-.227-.141-.373-.107-.325.074.048.182-1.612 2.049-3.69 4.15-3.272 3.308-6.218 6.919-6.433 7.884-.036.163-.353.515-.705.783s-.493.493-.313.5c.18.007-.045.536-.5 1.175s-.827 1.359-.827 1.6c0 .241-.135.439-.3.441-.359.004-1.3 1.941-1.3 2.677 0 .286-.18.52-.4.52-.22 0-.4.27-.4.6 0 .33-.18.6-.4.6-.22 0-.4.362-.4.805 0 .443-.165 1.118-.367 1.5C2.942 39.168 2 41.712 2 42.596c0 .552-.18 1.004-.4 1.004-.22 0-.4.705-.4 1.567 0 .897-.213 1.637-.5 1.733C.301 47.033.2 78.009.2 200c0 121.991.101 152.967.5 153.1.287.096.5.836.5 1.733 0 .862.18 1.567.4 1.567.22 0 .4.54.4 1.2 0 .66.18 1.2.4 1.2.22 0 .4.54.4 1.2 0 .66.18 1.2.4 1.2.22 0 .4.355.4.788 0 .433.36 1.429.8 2.212.44.783.8 1.674.8 1.979 0 .305.135.614.3.688.165.073.747 1.033 1.293 2.133.546 1.1 1.266 2.27 1.6 2.6.334.33.663.859.732 1.175.069.316.49.891.937 1.278.446.388.706.875.577 1.084-.129.208.046.487.389.618.342.132.531.388.419.569-.112.182.146.583.574.891.429.309.779.698.779.865 0 1.097 12.372 12.264 13.3 12.004.165-.046.3.092.3.307s.675.73 1.5 1.146c4.303 2.166 6.714 3.494 6.833 3.763.074.165.496.3.939.3.442 0 1.36.395 2.038.879.679.483 1.112.68.962.437-.191-.309.027-.302.724.021.549.255.999.561 1.001.681.002.12.678.264 1.502.319.825.056 1.671.273 1.88.482.21.21.759.381 1.221.381.462 0 1.065.225 1.34.5.735.735 306.585.735 307.32 0 .275-.275 1.083-.5 1.796-.5.713 0 1.408-.18 1.544-.4.136-.22.676-.4 1.2-.4.524 0 1.064-.18 1.2-.4.136-.22.562-.4.947-.4.384 0 1.934-.622 3.444-1.381 1.51-.76 2.923-1.272 3.139-1.139.22.136.267.039.108-.218-.257-.416.505-.671 1.492-.499.181.031.234-.097.118-.286-.117-.188.41-.586 1.17-.884.76-.298 1.382-.689 1.382-.868 0-.179.272-.325.604-.325.332 0 1.165-.536 1.851-1.192.686-.656 1.385-1.107 1.554-1.002.169.104.42-.105.559-.466.138-.36.338-.567.445-.46.561.56 11.789-10.708 13.141-13.187.208-.381.573-.825.812-.987.239-.162.292-.297.118-.3-.173-.003.052-.4.5-.881.449-.482.816-1.202.816-1.6 0-.399.153-.725.34-.725.187 0 .951-1.215 1.698-2.7s1.494-2.76 1.66-2.833c.166-.074.303-.434.303-.8.001-.367.367-1.266.814-1.999.447-.733.581-1.201.299-1.041-.412.233-.415.184-.014-.248.275-.297.5-.874.5-1.283 0-.409.144-.654.32-.545.176.108.365-.466.419-1.276.055-.81.271-1.645.48-1.854.21-.21.381-.759.381-1.221 0-.462.225-1.065.5-1.34.398-.398.5-31.665.5-153.66s-.102-153.262-.5-153.66c-.275-.275-.5-1.083-.5-1.796 0-.713-.18-1.408-.4-1.544-.22-.136-.4-.676-.4-1.2 0-.524-.18-1.064-.4-1.2-.22-.136-.4-.578-.4-.983s-.54-1.762-1.2-3.017c-.66-1.255-1.2-2.634-1.2-3.064 0-.431-.18-.672-.4-.536-.355.219-.595-.622-.437-1.53.031-.181-.128-.215-.353-.076-.226.139-.41-.027-.41-.37 0-.343-.18-.624-.4-.624-.22 0-.4-.36-.4-.8 0-.44-.18-.8-.4-.8-.22 0-.4-.278-.4-.618 0-.34-.45-1.068-1-1.618s-1-1.164-1-1.364c0-.2-.405-.785-.9-1.3-.495-.516-1.44-1.644-2.1-2.509-2.072-2.713-6.752-7.352-7.9-7.83-.605-.252-1.1-.632-1.1-.845 0-.588-1.707-1.888-2.5-1.903-.385-.007-.7-.294-.7-.637s-.18-.512-.4-.376c-.22.136-.4.057-.4-.176 0-.233-.36-.424-.8-.424-.44 0-.8-.18-.8-.4 0-.22-.27-.4-.6-.4-.33 0-.6-.18-.6-.4 0-.22-.27-.4-.6-.4-.33 0-.601-.135-.603-.3-.004-.359-1.941-1.3-2.677-1.3-.286 0-.52-.18-.52-.4 0-.22-.27-.4-.6-.4-.33 0-.6-.147-.6-.328 0-.18-.911-.576-2.025-.879-1.114-.303-2.115-.696-2.224-.872-.109-.177-.638-.321-1.175-.321s-.976-.18-.976-.4c0-.22-.54-.4-1.2-.4-.66 0-1.2-.18-1.2-.4 0-.22-.705-.4-1.567-.4-.897 0-1.637-.213-1.733-.5C352.944.231 54.498-.168 48.7.293M286.2 62.96c12.376 2.897 18.258 11.867 14.549 22.183-2.999 8.343-11.435 11.844-21.749 9.028-.44-.121-1.97-.379-3.4-.574-2.646-.362-6.832-1.015-9-1.405l-3.373-.604c-9.172-1.637-13.665 1.593-19.491 14.012-2.834 6.042-3.851 9.221-7.678 24a910.12 910.12 0 0 1-2.263 8.6c-.985 3.593-2.233 8.283-2.474 9.296l-.213.895 17.146.105 17.146.104-.048 2c-.049 2.069-.303 4.091-.966 7.7-2.332 12.688-2.27 12.654-23.428 12.818l-15.242.117-.442 1.483c-.358 1.201-2.971 11.745-3.49 14.082-.073.33-1.289 5.19-2.703 10.8-1.413 5.61-2.67 10.65-2.792 11.2-.123.55-.619 2.44-1.102 4.2-.483 1.76-.967 3.876-1.075 4.703-.108.826-.357 1.602-.554 1.723-.197.122-.358.83-.358 1.574 0 .744-.18 1.464-.4 1.6-.22.136-.4.678-.4 1.204 0 .526-.284 2.001-.631 3.276-1.07 3.931-2.161 8.208-2.734 10.72-.301 1.32-1.037 4.196-1.636 6.392-.599 2.195-1.154 4.355-1.233 4.8-.214 1.212-3.983 15.226-4.897 18.208-3.128 10.209-6.077 17.242-10.902 26-3.708 6.731-11.426 16.698-17.219 22.235-3.722 3.558-12.127 10.165-12.931 10.165-.106 0-1.413.789-2.905 1.754-2.256 1.46-10.124 5.446-13.112 6.643-14.983 6.003-33.711 5.054-40.69-2.062-8.316-8.48-6.677-22.425 3.012-25.626.822-.271 8.981-.447 22.878-.491 24.724-.08 24.433-.046 27.35-3.21.907-.984 1.65-1.841 1.65-1.902 0-.062.551-1.641 1.224-3.509 2.496-6.922 6.327-19.029 8.037-25.397.237-.88.573-1.96.748-2.4.174-.44.501-1.61.726-2.6 1.053-4.636 1.363-5.857 1.672-6.6.183-.44.42-1.25.527-1.8.107-.55.286-1.36.396-1.8l1.263-5c1.589-6.29 2.621-10.436 2.985-12 .179-.77 1.173-4.82 2.21-9 1.036-4.18 1.947-7.916 2.025-8.303.078-.386.417-1.736.753-3 .336-1.263.698-2.657.803-3.097 2.793-11.645 5.495-22.623 6.253-25.4.21-.77 1.293-5.18 2.405-9.8 1.113-4.62 2.108-8.696 2.211-9.057.171-.596-.939-.677-11.925-.866-13.564-.233-13.822-.267-15.681-2.072-2.406-2.336-2.717-5.068-1.227-10.769 1.015-3.882 1.826-5.257 4.268-7.236 2.525-2.047 2.102-1.992 16.451-2.129 9.934-.094 13.562-.253 13.671-.6.082-.259.539-1.821 1.017-3.471.478-1.65 1.009-3.36 1.18-3.8.171-.44.712-2.24 1.202-4 .489-1.76 1.051-3.513 1.248-3.895.197-.382.358-1.012.358-1.401s.468-1.967 1.041-3.506c.572-1.539 1.177-3.338 1.345-3.998.167-.66.779-2.356 1.359-3.769.58-1.413 1.055-2.736 1.055-2.94 0-2.183 8.815-18.364 12.461-22.873.364-.45 1.748-2.181 3.076-3.848 10.844-13.606 29.61-24.737 47.063-27.917 1.32-.241 2.76-.512 3.2-.602 1.58-.326 10.049.158 12.4.709"/></g></svg>

<svg id="svg" version="1.1" xmlns="http://www.w3.org/2000/svg" xmlns:xlink="http://www.w3.org/1999/xlink" width="400" height="400" viewBox="0, 0, 400,400"><g id="svgg"><path id="path0" d="M377.600 12.736 C 377.600 12.920,378.095 13.295,378.700 13.567 L 379.800 14.063 378.917 13.231 C 377.969 12.340,377.600 12.201,377.600 12.736 M385.209 19.446 C 385.221 19.913,386.780 21.900,386.791 21.463 C 386.796 21.278,386.440 20.669,386.000 20.109 C 385.560 19.550,385.204 19.251,385.209 19.446 M273.800 62.251 C 273.360 62.341,271.920 62.612,270.600 62.853 C 253.147 66.033,234.381 77.164,223.537 90.770 C 222.209 92.437,220.825 94.168,220.461 94.618 C 216.815 99.127,208.000 115.308,208.000 117.491 C 208.000 117.695,207.525 119.018,206.945 120.431 C 206.365 121.844,205.753 123.540,205.586 124.200 C 205.418 124.860,204.813 126.659,204.241 128.198 C 203.668 129.737,203.200 131.315,203.200 131.704 C 203.200 132.093,203.039 132.723,202.842 133.105 C 202.645 133.487,202.083 135.240,201.594 137.000 C 201.104 138.760,200.563 140.560,200.392 141.000 C 200.221 141.440,199.690 143.150,199.212 144.800 C 198.734 146.450,198.277 148.012,198.195 148.271 C 198.086 148.618,194.458 148.777,184.524 148.871 C 170.175 149.008,170.598 148.953,168.073 151.000 C 165.631 152.979,164.820 154.354,163.805 158.236 C 162.315 163.937,162.626 166.669,165.032 169.005 C 166.891 170.810,167.149 170.844,180.713 171.077 C 191.699 171.266,192.809 171.347,192.638 171.943 C 192.535 172.304,191.540 176.380,190.427 181.000 C 189.315 185.620,188.232 190.030,188.022 190.800 C 187.264 193.577,184.562 204.555,181.769 216.200 C 181.664 216.640,181.302 218.034,180.966 219.297 C 180.630 220.561,180.291 221.911,180.213 222.297 C 180.135 222.684,179.224 226.420,178.188 230.600 C 177.151 234.780,176.157 238.830,175.978 239.600 C 175.614 241.164,174.582 245.310,172.993 251.600 C 172.409 253.910,171.841 256.160,171.730 256.600 C 171.620 257.040,171.441 257.850,171.334 258.400 C 171.227 258.950,170.990 259.760,170.807 260.200 C 170.498 260.943,170.188 262.164,169.135 266.800 C 168.910 267.790,168.583 268.960,168.409 269.400 C 168.234 269.840,167.898 270.920,167.661 271.800 C 165.951 278.168,162.120 290.275,159.624 297.197 C 158.951 299.065,158.400 300.644,158.400 300.706 C 158.400 300.767,157.657 301.624,156.750 302.608 C 153.833 305.772,154.124 305.738,129.400 305.818 C 115.503 305.862,107.344 306.038,106.522 306.309 C 94.551 310.264,95.795 329.584,108.400 335.488 C 116.242 339.160,133.061 338.460,144.200 333.997 C 147.188 332.800,155.056 328.814,157.312 327.354 C 158.804 326.389,160.111 325.600,160.217 325.600 C 160.570 325.600,164.570 322.719,167.600 320.283 C 181.780 308.881,193.018 292.031,199.668 272.200 C 201.347 267.191,205.691 251.678,206.166 248.992 C 206.245 248.547,206.800 246.387,207.399 244.192 C 207.998 241.996,208.734 239.120,209.035 237.800 C 209.608 235.288,210.699 231.011,211.769 227.080 C 212.116 225.805,212.400 224.330,212.400 223.804 C 212.400 223.278,212.580 222.736,212.800 222.600 C 213.020 222.464,213.200 221.744,213.200 221.000 C 213.200 220.256,213.361 219.548,213.558 219.426 C 213.755 219.305,214.004 218.529,214.112 217.703 C 214.220 216.876,214.704 214.760,215.187 213.000 C 215.670 211.240,216.166 209.350,216.289 208.800 C 216.411 208.250,217.668 203.210,219.081 197.600 C 220.495 191.990,221.711 187.130,221.784 186.800 C 222.303 184.463,224.916 173.919,225.274 172.718 L 225.716 171.235 240.958 171.118 C 262.116 170.954,262.054 170.988,264.386 158.300 C 265.049 154.691,265.303 152.669,265.352 150.600 L 265.400 148.600 248.254 148.496 L 231.108 148.391 231.321 147.496 C 231.562 146.483,232.810 141.793,233.795 138.200 C 234.157 136.880,235.175 133.010,236.058 129.600 C 239.885 114.821,240.902 111.642,243.736 105.600 C 249.562 93.181,254.055 89.951,263.227 91.588 C 264.422 91.801,265.940 92.073,266.600 92.192 C 268.768 92.582,272.954 93.235,275.600 93.597 C 277.030 93.792,278.560 94.050,279.000 94.171 C 287.345 96.450,295.053 94.445,298.781 89.027 C 305.029 79.946,301.158 68.150,290.659 64.281 C 286.326 62.684,277.094 61.572,273.800 62.251 M386.919 378.090 C 386.031 379.238,385.943 379.738,386.781 378.874 C 387.276 378.364,387.598 377.865,387.497 377.764 C 387.396 377.663,387.136 377.810,386.919 378.090 M379.256 386.013 C 378.016 387.046,378.575 387.035,379.891 386.000 C 380.450 385.560,380.749 385.206,380.554 385.213 C 380.359 385.221,379.775 385.581,379.256 386.013 " stroke="none" fill="#fcfcfc" fill-rule="evenodd"></path><path id="path1" d="M48.700 0.293 C 47.655 0.376,46.800 0.614,46.800 0.822 C 46.800 1.030,46.080 1.200,45.200 1.200 C 44.320 1.200,43.600 1.380,43.600 1.600 C 43.600 1.820,43.060 2.000,42.400 2.000 C 41.740 2.000,41.200 2.180,41.200 2.400 C 41.200 2.620,40.660 2.800,40.000 2.800 C 39.340 2.800,38.800 2.980,38.800 3.200 C 38.800 3.420,38.445 3.600,38.012 3.600 C 37.579 3.600,36.583 3.960,35.800 4.400 C 35.017 4.840,34.111 5.200,33.788 5.200 C 33.465 5.200,33.200 5.346,33.200 5.525 C 33.200 5.704,32.570 6.098,31.800 6.400 C 31.030 6.702,30.400 7.096,30.400 7.275 C 30.400 7.454,30.080 7.600,29.688 7.600 C 29.297 7.600,28.724 7.950,28.415 8.379 C 28.107 8.807,27.719 9.073,27.553 8.971 C 27.387 8.869,26.796 9.240,26.239 9.797 C 25.683 10.354,25.083 10.762,24.906 10.705 C 24.729 10.647,24.050 11.095,23.396 11.700 C 22.743 12.305,22.001 12.800,21.747 12.800 C 21.493 12.800,21.178 13.081,21.046 13.425 C 20.914 13.769,20.620 13.936,20.393 13.796 C 20.166 13.655,20.020 13.689,20.068 13.870 C 20.116 14.052,18.456 15.919,16.378 18.020 C 13.106 21.328,10.160 24.939,9.945 25.904 C 9.909 26.067,9.592 26.419,9.240 26.687 C 8.888 26.955,8.747 27.180,8.927 27.187 C 9.107 27.194,8.882 27.723,8.427 28.362 C 7.972 29.001,7.600 29.721,7.600 29.962 C 7.600 30.203,7.465 30.401,7.300 30.403 C 6.941 30.407,6.000 32.344,6.000 33.080 C 6.000 33.366,5.820 33.600,5.600 33.600 C 5.380 33.600,5.200 33.870,5.200 34.200 C 5.200 34.530,5.020 34.800,4.800 34.800 C 4.580 34.800,4.400 35.162,4.400 35.605 C 4.400 36.048,4.235 36.723,4.033 37.105 C 2.942 39.168,2.000 41.712,2.000 42.596 C 2.000 43.148,1.820 43.600,1.600 43.600 C 1.380 43.600,1.200 44.305,1.200 45.167 C 1.200 46.064,0.987 46.804,0.700 46.900 C 0.301 47.033,0.200 78.009,0.200 200.000 C 0.200 321.991,0.301 352.967,0.700 353.100 C 0.987 353.196,1.200 353.936,1.200 354.833 C 1.200 355.695,1.380 356.400,1.600 356.400 C 1.820 356.400,2.000 356.940,2.000 357.600 C 2.000 358.260,2.180 358.800,2.400 358.800 C 2.620 358.800,2.800 359.340,2.800 360.000 C 2.800 360.660,2.980 361.200,3.200 361.200 C 3.420 361.200,3.600 361.555,3.600 361.988 C 3.600 362.421,3.960 363.417,4.400 364.200 C 4.840 364.983,5.200 365.874,5.200 366.179 C 5.200 366.484,5.335 366.793,5.500 366.867 C 5.665 366.940,6.247 367.900,6.793 369.000 C 7.339 370.100,8.059 371.270,8.393 371.600 C 8.727 371.930,9.056 372.459,9.125 372.775 C 9.194 373.091,9.615 373.666,10.062 374.053 C 10.508 374.441,10.768 374.928,10.639 375.137 C 10.510 375.345,10.685 375.624,11.028 375.755 C 11.370 375.887,11.559 376.143,11.447 376.324 C 11.335 376.506,11.593 376.907,12.021 377.215 C 12.450 377.524,12.800 377.913,12.800 378.080 C 12.800 379.177,25.172 390.344,26.100 390.084 C 26.265 390.038,26.400 390.176,26.400 390.391 C 26.400 390.606,27.075 391.121,27.900 391.537 C 32.203 393.703,34.614 395.031,34.733 395.300 C 34.807 395.465,35.229 395.600,35.672 395.600 C 36.114 395.600,37.032 395.995,37.710 396.479 C 38.389 396.962,38.822 397.159,38.672 396.916 C 38.481 396.607,38.699 396.614,39.396 396.937 C 39.945 397.192,40.395 397.498,40.397 397.618 C 40.399 397.738,41.075 397.882,41.899 397.937 C 42.724 397.993,43.570 398.210,43.779 398.419 C 43.989 398.629,44.538 398.800,45.000 398.800 C 45.462 398.800,46.065 399.025,46.340 399.300 C 47.075 400.035,352.925 400.035,353.660 399.300 C 353.935 399.025,354.743 398.800,355.456 398.800 C 356.169 398.800,356.864 398.620,357.000 398.400 C 357.136 398.180,357.676 398.000,358.200 398.000 C 358.724 398.000,359.264 397.820,359.400 397.600 C 359.536 397.380,359.962 397.200,360.347 397.200 C 360.731 397.200,362.281 396.578,363.791 395.819 C 365.301 395.059,366.714 394.547,366.930 394.680 C 367.150 394.816,367.197 394.719,367.038 394.462 C 366.781 394.046,367.543 393.791,368.530 393.963 C 368.711 393.994,368.764 393.866,368.648 393.677 C 368.531 393.489,369.058 393.091,369.818 392.793 C 370.578 392.495,371.200 392.104,371.200 391.925 C 371.200 391.746,371.472 391.600,371.804 391.600 C 372.136 391.600,372.969 391.064,373.655 390.408 C 374.341 389.752,375.040 389.301,375.209 389.406 C 375.378 389.510,375.629 389.301,375.768 388.940 C 375.906 388.580,376.106 388.373,376.213 388.480 C 376.774 389.040,388.002 377.772,389.354 375.293 C 389.562 374.912,389.927 374.468,390.166 374.306 C 390.405 374.144,390.458 374.009,390.284 374.006 C 390.111 374.003,390.336 373.606,390.784 373.125 C 391.233 372.643,391.600 371.923,391.600 371.525 C 391.600 371.126,391.753 370.800,391.940 370.800 C 392.127 370.800,392.891 369.585,393.638 368.100 C 394.385 366.615,395.132 365.340,395.298 365.267 C 395.464 365.193,395.601 364.833,395.601 364.467 C 395.602 364.100,395.968 363.201,396.415 362.468 C 396.862 361.735,396.996 361.267,396.714 361.427 C 396.302 361.660,396.299 361.611,396.700 361.179 C 396.975 360.882,397.200 360.305,397.200 359.896 C 397.200 359.487,397.344 359.242,397.520 359.351 C 397.696 359.459,397.885 358.885,397.939 358.075 C 397.994 357.265,398.210 356.430,398.419 356.221 C 398.629 356.011,398.800 355.462,398.800 355.000 C 398.800 354.538,399.025 353.935,399.300 353.660 C 399.698 353.262,399.800 321.995,399.800 200.000 C 399.800 78.005,399.698 46.738,399.300 46.340 C 399.025 46.065,398.800 45.257,398.800 44.544 C 398.800 43.831,398.620 43.136,398.400 43.000 C 398.180 42.864,398.000 42.324,398.000 41.800 C 398.000 41.276,397.820 40.736,397.600 40.600 C 397.380 40.464,397.200 40.022,397.200 39.617 C 397.200 39.212,396.660 37.855,396.000 36.600 C 395.340 35.345,394.800 33.966,394.800 33.536 C 394.800 33.105,394.620 32.864,394.400 33.000 C 394.045 33.219,393.805 32.378,393.963 31.470 C 393.994 31.289,393.835 31.255,393.610 31.394 C 393.384 31.533,393.200 31.367,393.200 31.024 C 393.200 30.681,393.020 30.400,392.800 30.400 C 392.580 30.400,392.400 30.040,392.400 29.600 C 392.400 29.160,392.220 28.800,392.000 28.800 C 391.780 28.800,391.600 28.522,391.600 28.182 C 391.600 27.842,391.150 27.114,390.600 26.564 C 390.050 26.014,389.600 25.400,389.600 25.200 C 389.600 25.000,389.195 24.415,388.700 23.900 C 388.205 23.384,387.260 22.256,386.600 21.391 C 384.528 18.678,379.848 14.039,378.700 13.561 C 378.095 13.309,377.600 12.929,377.600 12.716 C 377.600 12.128,375.893 10.828,375.100 10.813 C 374.715 10.806,374.400 10.519,374.400 10.176 C 374.400 9.833,374.220 9.664,374.000 9.800 C 373.780 9.936,373.600 9.857,373.600 9.624 C 373.600 9.391,373.240 9.200,372.800 9.200 C 372.360 9.200,372.000 9.020,372.000 8.800 C 372.000 8.580,371.730 8.400,371.400 8.400 C 371.070 8.400,370.800 8.220,370.800 8.000 C 370.800 7.780,370.530 7.600,370.200 7.600 C 369.870 7.600,369.599 7.465,369.597 7.300 C 369.593 6.941,367.656 6.000,366.920 6.000 C 366.634 6.000,366.400 5.820,366.400 5.600 C 366.400 5.380,366.130 5.200,365.800 5.200 C 365.470 5.200,365.200 5.053,365.200 4.872 C 365.200 4.692,364.289 4.296,363.175 3.993 C 362.061 3.690,361.060 3.297,360.951 3.121 C 360.842 2.944,360.313 2.800,359.776 2.800 C 359.239 2.800,358.800 2.620,358.800 2.400 C 358.800 2.180,358.260 2.000,357.600 2.000 C 356.940 2.000,356.400 1.820,356.400 1.600 C 356.400 1.380,355.695 1.200,354.833 1.200 C 353.936 1.200,353.196 0.987,353.100 0.700 C 352.944 0.231,54.498 -0.168,48.700 0.293 M286.200 62.960 C 298.576 65.857,304.458 74.827,300.749 85.143 C 297.750 93.486,289.314 96.987,279.000 94.171 C 278.560 94.050,277.030 93.792,275.600 93.597 C 272.954 93.235,268.768 92.582,266.600 92.192 C 265.940 92.073,264.422 91.801,263.227 91.588 C 254.055 89.951,249.562 93.181,243.736 105.600 C 240.902 111.642,239.885 114.821,236.058 129.600 C 235.175 133.010,234.157 136.880,233.795 138.200 C 232.810 141.793,231.562 146.483,231.321 147.496 L 231.108 148.391 248.254 148.496 L 265.400 148.600 265.352 150.600 C 265.303 152.669,265.049 154.691,264.386 158.300 C 262.054 170.988,262.116 170.954,240.958 171.118 L 225.716 171.235 225.274 172.718 C 224.916 173.919,222.303 184.463,221.784 186.800 C 221.711 187.130,220.495 191.990,219.081 197.600 C 217.668 203.210,216.411 208.250,216.289 208.800 C 216.166 209.350,215.670 211.240,215.187 213.000 C 214.704 214.760,214.220 216.876,214.112 217.703 C 214.004 218.529,213.755 219.305,213.558 219.426 C 213.361 219.548,213.200 220.256,213.200 221.000 C 213.200 221.744,213.020 222.464,212.800 222.600 C 212.580 222.736,212.400 223.278,212.400 223.804 C 212.400 224.330,212.116 225.805,211.769 227.080 C 210.699 231.011,209.608 235.288,209.035 237.800 C 208.734 239.120,207.998 241.996,207.399 244.192 C 206.800 246.387,206.245 248.547,206.166 248.992 C 205.952 250.204,202.183 264.218,201.269 267.200 C 198.141 277.409,195.192 284.442,190.367 293.200 C 186.659 299.931,178.941 309.898,173.148 315.435 C 169.426 318.993,161.021 325.600,160.217 325.600 C 160.111 325.600,158.804 326.389,157.312 327.354 C 155.056 328.814,147.188 332.800,144.200 333.997 C 129.217 340.000,110.489 339.051,103.510 331.935 C 95.194 323.455,96.833 309.510,106.522 306.309 C 107.344 306.038,115.503 305.862,129.400 305.818 C 154.124 305.738,153.833 305.772,156.750 302.608 C 157.657 301.624,158.400 300.767,158.400 300.706 C 158.400 300.644,158.951 299.065,159.624 297.197 C 162.120 290.275,165.951 278.168,167.661 271.800 C 167.898 270.920,168.234 269.840,168.409 269.400 C 168.583 268.960,168.910 267.790,169.135 266.800 C 170.188 262.164,170.498 260.943,170.807 260.200 C 170.990 259.760,171.227 258.950,171.334 258.400 C 171.441 257.850,171.620 257.040,171.730 256.600 C 171.841 256.160,172.409 253.910,172.993 251.600 C 174.582 245.310,175.614 241.164,175.978 239.600 C 176.157 238.830,177.151 234.780,178.188 230.600 C 179.224 226.420,180.135 222.684,180.213 222.297 C 180.291 221.911,180.630 220.561,180.966 219.297 C 181.302 218.034,181.664 216.640,181.769 216.200 C 184.562 204.555,187.264 193.577,188.022 190.800 C 188.232 190.030,189.315 185.620,190.427 181.000 C 191.540 176.380,192.535 172.304,192.638 171.943 C 192.809 171.347,191.699 171.266,180.713 171.077 C 167.149 170.844,166.891 170.810,165.032 169.005 C 162.626 166.669,162.315 163.937,163.805 158.236 C 164.820 154.354,165.631 152.979,168.073 151.000 C 170.598 148.953,170.175 149.008,184.524 148.871 C 194.458 148.777,198.086 148.618,198.195 148.271 C 198.277 148.012,198.734 146.450,199.212 144.800 C 199.690 143.150,200.221 141.440,200.392 141.000 C 200.563 140.560,201.104 138.760,201.594 137.000 C 202.083 135.240,202.645 133.487,202.842 133.105 C 203.039 132.723,203.200 132.093,203.200 131.704 C 203.200 131.315,203.668 129.737,204.241 128.198 C 204.813 126.659,205.418 124.860,205.586 124.200 C 205.753 123.540,206.365 121.844,206.945 120.431 C 207.525 119.018,208.000 117.695,208.000 117.491 C 208.000 115.308,216.815 99.127,220.461 94.618 C 220.825 94.168,222.209 92.437,223.537 90.770 C 234.381 77.164,253.147 66.033,270.600 62.853 C 271.920 62.612,273.360 62.341,273.800 62.251 C 275.380 61.925,283.849 62.409,286.200 62.960 " stroke="none" fill="#2f333e" fill-rule="evenodd"></path></g></svg>
